X:1
T:Title
%%score 1 { 2 | 3 }
L:1/8
Q:1/4=100
M:4/4
K:C
V:1 treble nm="Grand Piano, Soprano"
V:2 bass nm="Choir Pad, Bass"
V:3 bass 
V:1
 [Ec]2 [_EB]>[EA] [=EG]3 E | FGAB c2 G2 | [FA]2 [FA]>[FA] [EG]2 [Ec]2 | [^FB][FA][FB][Fc] [=Fd]4 | %4
w: By~Joseph~Lincoln~Hall * * * *||||
 [Ge]2 [Fd]>[Ec] [EG]3 G | ABcd e2 c2 | [Fd]2 [Fc]>[FA] [EG]2 [Ec]2 | [Fc][FB][FA][FB] [Ec]4 | %8
w: ||||
 [CEGc]8 | [CEA]8 | [D^FAd]8 | [DFGB]8 | [Ge]2 [Fd]>[Ec] [EG]3 G | ABcd e2 c2 | %14
w: ||||||
 [Fd]2 [Fc]>[FA] [EG]2 [Ec]2 | [Fc][FB][FA][FB] [Ec]4- | [Ec]4 z4 |] %17
w: |||
V:2
 G,2 ^F,>F, G,3 E, | F,G,A,B,[K:treble] C2 G,2 | C2 C>C C2 C2 | A,A,DC B,4 | C2 C>C C3 G, | %5
 A,B,CD E2 C2 | A,2 A,>C C2 C2 | DDDD C4 | C,2 C,>D, E,2 C,2 | A,,2 A,,>B,, C,2 A,,2 | %10
 D,2 D,>E, ^F,2 D,2 | G,2 G,>A, B,2 G,2 | C2 C>C C3 G, | A,B,CD E2 C2 | A,2 A,>C C2 C2 | DDDD C4- | %16
 C4 z4 |] %17
V:3
 C,2 C,>C, C,4 | z8 | F,2 F,>F, G,2 G,2 | D,D,D,D, G,4 | C,2 C,>C, C,4 | z8 | F,2 F,>F, G,2 G,2 | %7
 G,G,G,G, C,4 | C,,2 C,,>D,, E,,2 C,,2 | F,,,2 F,,,>G,,, A,,,2 F,,,2 | D,,2 D,,>D,, ^F,,2 D,,2 | %11
 G,,2 G,,>A,, B,,2 G,,2 | C,2 C,>C, C,4 | z8 | F,2 F,>F, G,2 G,2 | G,G,G,G, C,4- | C,4 z4 |] %17

